packages/tokens/icons/campaigns/size24Px.svg

<svg viewBox="0 0 24 24" fill="none" xmlns="http://www.w3.org/2000/svg" width="1em" height="1em"><path d="M5 8.5H9.20351C9.55577 8.5 9.85864 8.74964 9.92588 9.09544C10.0845 9.91112 10.7989 10.5 11.6299 10.5H19C19.2761 10.5 19.5 10.7239 19.5 11V21C19.5 21.2761 19.2761 21.5 19 21.5H5C4.72386 21.5 4.5 21.2761 4.5 21V9C4.5 8.72386 4.72386 8.5 5 8.5Z" stroke="currentColor"/><path d="M17.5001 10.5V3.5C17.5001 2.94772 17.0523 2.5 16.5001 2.5L7.50006 2.5C6.94778 2.5 6.50006 2.94772 6.50006 3.5L6.50006 8.5" stroke="currentColor"/><path d="M8.5 5.5L15.5 5.5M11.5 7.5L15.5 7.5" stroke="currentColor" stroke-linecap="round"/><path d="M12 14.5V16.5L13 17" stroke="currentColor" stroke-linecap="round" stroke-linejoin="round"/><circle cx="12" cy="16" r="3.5" stroke="currentColor" stroke-linejoin="round"/></svg>

<svg xmlns="http://www.w3.org/2000/svg" fill="none" viewBox="0 0 24 24" width="1em" height="1em"><path stroke="currentColor" d="M5 8.5h4.204c.352 0 .655.25.722.595A1.736 1.736 0 0 0 11.63 10.5H19a.5.5 0 0 1 .5.5v10a.5.5 0 0 1-.5.5H5a.5.5 0 0 1-.5-.5V9a.5.5 0 0 1 .5-.5Z"/><path stroke="currentColor" d="M17.5 10.5v-7a1 1 0 0 0-1-1h-9a1 1 0 0 0-1 1v5"/><path stroke="currentColor" stroke-linecap="round" d="M8.5 5.5h7m-4 2h4"/><path stroke="currentColor" stroke-linecap="round" stroke-linejoin="round" d="M12 14.5v2l1 .5"/><circle cx="12" cy="16" r="3.5" stroke="currentColor" stroke-linejoin="round"/></svg>
